assets/icons/google-icon.svg

<svg fill="none" height="17" viewBox="0 0 16 17" width="16" xmlns="http://www.w3.org/2000/svg"><path d="m15.9988 8.3441c0-.67115-.0545-1.16091-.1723-1.66881h-7.6639v3.02924h4.4985c-.0906.75277-.5804 1.88657-1.6688 2.64837l-.0152.1014 2.4231 1.8772.1679.0167c1.5418-1.4239 2.4307-3.519 2.4307-6.0041z" fill="#4285f4"/><path d="m8.16265 16.3254c2.20395 0 4.05415-.7256 5.40555-1.9772l-2.5758-1.9954c-.6893.4807-1.61444.8163-2.82975.8163-2.15857 0-3.99063-1.4239-4.64371-3.392l-.09573.00813-2.519654 1.94997-.032951.0916c1.342295 2.6665 4.099495 4.4986 7.292045 4.4986z" fill="#34a853"/><path d="m3.519 9.77716c-.17232-.50789-.27205-1.05211-.27205-1.61441 0-.56235.09973-1.10651.26299-1.61441l-.00457-.10817-2.551229-1.98131-.083472.03971c-.553227 1.10651-.870669 2.34908-.870669 3.66418s.317442 2.55765.870669 3.66415z" fill="#fbbc05"/><path d="m8.16265 3.15623c1.53276 0 2.56665.66208 3.15625 1.21537l2.3037-2.24929c-1.4149-1.315104-3.256-2.12231-5.45995-2.12231-3.19255 0-5.94975 1.83206-7.292045 4.49853l2.639265 2.04978c.66215-1.96812 2.49421-3.39208 4.65278-3.39208z" fill="#eb4335"/></svg>

<svg width="16" height="17" viewBox="0 0 16 17" fill="none" xmlns="http://www.w3.org/2000/svg">
<path d="M15.9988 8.3441C15.9988 7.67295 15.9443 7.18319 15.8265 6.67529H8.1626V9.70453H12.6611C12.5705 10.4573 12.0807 11.5911 10.9923 12.3529L10.9771 12.4543L13.4002 14.3315L13.5681 14.3482C15.1099 12.9243 15.9988 10.8292 15.9988 8.3441Z" fill="#4285F4"/>
<path d="M8.16265 16.3254C10.3666 16.3254 12.2168 15.5998 13.5682 14.3482L10.9924 12.3528C10.3031 12.8335 9.37796 13.1691 8.16265 13.1691C6.00408 13.1691 4.17202 11.7452 3.51894 9.7771L3.42321 9.78523L0.903556 11.7352L0.870605 11.8268C2.2129 14.4933 4.9701 16.3254 8.16265 16.3254Z" fill="#34A853"/>
<path d="M3.519 9.77716C3.34668 9.26927 3.24695 8.72505 3.24695 8.16275C3.24695 7.6004 3.34668 7.05624 3.50994 6.54834L3.50537 6.44017L0.954141 4.45886L0.870669 4.49857C0.317442 5.60508 0 6.84765 0 8.16275C0 9.47785 0.317442 10.7204 0.870669 11.8269L3.519 9.77716Z" fill="#FBBC05"/>
<path d="M8.16265 3.15623C9.69541 3.15623 10.7293 3.81831 11.3189 4.3716L13.6226 2.12231C12.2077 0.807206 10.3666 0 8.16265 0C4.9701 0 2.2129 1.83206 0.870605 4.49853L3.50987 6.54831C4.17202 4.58019 6.00408 3.15623 8.16265 3.15623Z" fill="#EB4335"/>
</svg>
